;FLAVOR:Marlin
;TIME:640
;Filament used: 0.172783m
;Layer height: 0.2
;MINX:100.804
;MINY:40.523
;MINZ:0.2
;MAXX:119.166
;MAXY:49.827
;MAXZ:15
;Generated with Cura_SteamEngine main
M82 ;absolute extrusion mode
; Ender 3 Custom Start G-code
G92 E0 ; Reset Extruder
G28 ; Home all axes
M104 S175 ; Start heating up the nozzle most of the way
M190 S60 ; Start heating the bed, wait until target temperature reached
M109 S200 ; Finish heating the nozzle
G1 Z2.0 F3000 ; Move Z Axis up little to prevent scratching of Heat Bed
G1 X0.1 Y20 Z0.3 F5000.0 ; Move to start position
G1 X0.1 Y200.0 Z0.3 F1500.0 E15 ; Draw the first line
G1 X0.4 Y200.0 Z0.3 F5000.0 ; Move to side a little
G1 X0.4 Y20 Z0.3 F1500.0 E30 ; Draw the second line
G92 E0 ; Reset Extruder
G1 Z2.0 F3000 ; Move Z Axis up little to prevent scratching of Heat Bed
G1 X5 Y20 Z0.3 F5000.0 ; Move over to prevent blob squish
G92 E0
G92 E0
G1 F1500 E-6.5
;LAYER_COUNT:75
;LAYER:0
M107
;MESH:3DBenchy.stl
G0 F6000 X109.853 Y47.153 Z0.2
;TYPE:WALL-INNER
G1 F1500 E0
G1 F942.2 X110.252 Y47.153 E0.01327
G1 X110.668 Y47.107 E0.02719
G1 X110.983 Y47.039 E0.03791
G1 X111.374 Y46.934 E0.05138
G1 X111.8 Y46.753 E0.06677
G1 X112.051 Y46.622 E0.07619
G1 X112.351 Y46.435 E0.08794
G1 X112.767 Y46.119 E0.10532
G1 X113.065 Y45.821 E0.11934
G1 X113.231 Y45.631 E0.12773
G1 X113.56 Y45.192 E0.14597
G1 X113.429 Y44.977 E0.15435
G1 X113.213 Y44.698 E0.16608
G1 X112.967 Y44.416 E0.17853
G1 X112.534 Y44.036 E0.19769
G1 X112.059 Y43.726 E0.21656
G1 X111.731 Y43.566 E0.2287
G1 X111.413 Y43.431 E0.24019
G1 X110.951 Y43.295 E0.2562
G1 X110.536 Y43.227 E0.27019
G1 X110.129 Y43.196 E0.28377
G1 X109.786 Y43.2 E0.29518
G1 X102.487 Y43.659 E0.53842
G1 X102.487 Y46.688 E0.63917
G1 X109.853 Y47.153 E0.88465
G0 F6000 X109.841 Y47.553
;TYPE:WALL-OUTER
G1 F942.2 X110.274 Y47.553 E0.89905
G1 X110.732 Y47.503 E0.91437
G1 X111.077 Y47.428 E0.92612
G1 X111.354 Y47.354 E0.93565
G1 X111.6 Y47.272 E0.94428
G1 X111.97 Y47.115 E0.95765
G1 X112.249 Y46.97 E0.9681
G1 X112.578 Y46.765 E0.981
G1 X113.031 Y46.421 E0.99991
G1 X113.357 Y46.095 E1.01525
G1 X113.542 Y45.883 E1.02461
G1 X113.763 Y45.588 E1.03687
G1 X113.962 Y45.279 E1.04909
G1 X113.961 Y45.083 E1.05561
G1 X113.76 Y44.751 E1.06852
G1 X113.541 Y44.466 E1.08047
G1 X113.248 Y44.131 E1.09528
G1 X112.878 Y43.805 E1.11168
G1 X112.67 Y43.647 E1.12037
G1 X112.257 Y43.378 E1.13676
G1 X111.897 Y43.202 E1.15009
G1 X111.547 Y43.053 E1.16274
G1 X111.174 Y42.944 E1.17566
G1 X110.923 Y42.886 E1.18423
G1 X110.584 Y42.829 E1.19566
G1 X110.141 Y42.796 E1.21044
G1 X109.771 Y42.8 E1.22275
G1 X102.403 Y43.26 E1.46828
G1 X102.223 Y43.327 E1.47467
G1 X102.134 Y43.425 E1.47908
G1 X102.084 Y43.559 E1.48383
G1 X102.087 Y46.776 E1.59083
G1 X102.123 Y46.9 E1.59513
G1 X102.229 Y47.025 E1.60058
G1 X102.367 Y47.082 E1.60554
G1 X109.841 Y47.553 E1.85462
G0 F6000 X110.231 Y46.793
;TYPE:SKIN
G1 F942.2 X110.608 Y46.752 E1.86723
G1 X110.897 Y46.688 E1.87708
G1 X111.259 Y46.591 E1.88954
G1 X111.645 Y46.426 E1.90351
G1 X111.872 Y46.309 E1.912
G1 X112.144 Y46.138 E1.92269
G1 X112.532 Y45.844 E1.93888
G1 X112.878 Y45.498 E1.95515
G1 X113.124 Y45.174 E1.96868
G1 X112.945 Y44.939 E1.97851
G1 X112.694 Y44.656 E1.99109
G1 X112.315 Y44.324 E2.00785
G1 X111.821 Y44.002 E2.02746
G1 X111.29 Y43.77 E2.04673
G1 X110.896 Y43.653 E2.0604
G1 X110.491 Y43.585 E2.07406
G1 X110.115 Y43.557 E2.0866
G1 X109.801 Y43.56 E2.09705
G1 X102.845 Y43.994 E2.32886
G1 X102.847 Y46.349 E2.40718
G1 X109.864 Y46.793 E2.64104
G1 X110.231 Y46.793 E2.65324
G0 F6000 X110.231 Y47.053
G0 X111.464 Y46.72
G0 X112.207 Y46.307
G0 X112.915 Y45.829
G0 X112.704 Y45.387
G1 F942.2 X111.316 Y44 E2.71851
G0 F6000 X110.548 Y43.797
G1 F942.2 X112.421 Y45.67 E2.80661
G0 F6000 X112.101 Y45.916
G1 F942.2 X109.944 Y43.759 E2.90807
G0 F6000 X109.404 Y43.785
G1 F942.2 X111.761 Y46.141 E3.01891
G0 F6000 X111.377 Y46.323
G1 F942.2 X108.872 Y43.818 E3.13674
G0 F6000 X108.34 Y43.851
G1 F942.2 X110.954 Y46.466 E3.25971
G0 F6000 X110.485 Y46.562
G1 F942.2 X107.807 Y43.885 E3.38565
G0 F6000 X107.275 Y43.918
G1 F942.2 X109.949 Y46.592 E3.51143
G0 F6000 X109.351 Y46.56
G1 F942.2 X106.742 Y43.951 E3.63415
G0 F6000 X106.21 Y43.984
G1 F942.2 X108.747 Y46.521 E3.75348
G0 F6000 X108.143 Y46.483
G1 F942.2 X105.677 Y44.018 E3.86945
G0 F6000 X105.145 Y44.051
G1 F942.2 X107.539 Y46.445 E3.98206
G0 F6000 X106.935 Y46.406
G1 F942.2 X104.612 Y44.084 E4.0913
G0 F6000 X104.08 Y44.117
G1 F942.2 X106.331 Y46.368 E4.19718
G0 F6000 X105.727 Y46.33
G1 F942.2 X103.548 Y44.151 E4.29968
G0 F6000 X103.044 Y44.213
G1 F942.2 X105.123 Y46.292 E4.39747
G0 F6000 X104.519 Y46.253
G1 F942.2 X103.044 Y44.778 E4.46685
G0 F6000 X103.045 Y45.345
G1 F942.2 X103.915 Y46.215 E4.50777
G0 F6000 X103.311 Y46.176
M104 S200
G1 F942.2 X103.045 Y45.911 E4.52026
;MESH:NONMESH
G0 F300 X103.045 Y45.911 Z0.4
G0 F6000 X102.586 Y45.911
G0 X102.658 Y46.527
G0 X110.349 Y47.043
G0 X110.229 Y47.294
;TIME_ELAPSED:15.128097
;LAYER:1
M106 S85
M106 P1 S85
;TYPE:WALL-INNER
;MESH:3DBenchy.stl
G1 F888.9 X110.575 Y47.266 E4.5318
G1 X111.129 Y47.16 E4.55056
G1 X111.647 Y46.992 E4.56867
G1 X112.017 Y46.821 E4.58223
G1 X112.316 Y46.658 E4.59356
G1 X112.707 Y46.392 E4.60929
G1 X112.982 Y46.162 E4.62121
G1 X113.252 Y45.896 E4.63382
G1 X113.477 Y45.639 E4.64518
G1 X113.657 Y45.396 E4.65524
G1 X113.807 Y45.163 E4.66445
G1 X113.468 Y44.703 E4.68346
G1 X113.197 Y44.39 E4.69723
G1 X112.811 Y44.036 E4.71465
G1 X112.46 Y43.786 E4.72898
G1 X112.022 Y43.525 E4.74594
G1 X111.649 Y43.363 E4.75946
G1 X111.327 Y43.251 E4.7708
G1 X110.929 Y43.147 E4.78449
G1 X110.606 Y43.09 E4.79539
G1 X110.218 Y43.051 E4.80836
G1 X109.782 Y43.055 E4.82287
G1 X102.393 Y43.551 E5.06918
G1 X102.387 Y44.335 E5.09526
G1 X103.493 Y44.336 E5.13204
G1 X103.859 Y44.46 E5.14489
G1 X104.049 Y44.71 E5.15534
G1 X104.092 Y44.936 E5.16299
G1 X104.092 Y45.413 E5.17885
G1 X104.048 Y45.64 E5.18655
G1 X103.858 Y45.889 E5.19696
G1 X103.556 Y46.011 E5.2078
G1 X102.389 Y46.015 E5.24661
G1 X102.398 Y46.796 E5.27259
G1 X103.572 Y46.881 E5.31174
G1 X109.862 Y47.3 E5.52141
G1 X110.229 Y47.294 E5.53362
G0 F7500 X110.249 Y47.694
;TYPE:WALL-OUTER
G1 F888.9 X110.629 Y47.663 E5.5463
G1 X111.23 Y47.548 E5.56665
G1 X111.693 Y47.398 E5.58284
G1 X111.929 Y47.303 E5.5913
G1 X112.197 Y47.178 E5.60113
G1 X112.524 Y47 E5.61352
G1 X112.949 Y46.712 E5.63059
G1 X113.251 Y46.458 E5.64372
G1 X113.544 Y46.171 E5.65736
G1 X113.789 Y45.89 E5.66976
G1 X113.986 Y45.624 E5.68077
G1 X114.199 Y45.295 E5.6938
G1 X114.225 Y45.111 E5.69998
G1 X114.03 Y44.792 E5.71242
G1 X113.782 Y44.453 E5.72639
G1 X113.484 Y44.109 E5.74153
G1 X113.153 Y43.807 E5.75643
G1 X112.947 Y43.641 E5.76523
G1 X112.679 Y43.451 E5.77616
G1 X112.211 Y43.171 E5.79429
G1 X111.795 Y42.99 E5.80938
G1 X111.443 Y42.868 E5.82177
G1 X111.015 Y42.756 E5.83649
G1 X110.661 Y42.694 E5.84844
G1 X110.236 Y42.651 E5.86265
G1 X109.766 Y42.655 E5.87828
G1 X102.245 Y43.16 E6.129
G1 X102.046 Y43.31 E6.13728
G1 X101.989 Y43.51 E6.1442
G1 X101.987 Y44.735 E6.18494
G1 X103.493 Y44.736 E6.23503
G1 X103.615 Y44.777 E6.23932
G1 X103.692 Y44.878 E6.24354
G1 X103.692 Y45.471 E6.26326
G1 X103.614 Y45.572 E6.26751
G1 X103.514 Y45.613 E6.2711
G1 X101.987 Y45.615 E6.32189
G1 X101.992 Y46.868 E6.36357
G1 X102.09 Y47.094 E6.37176
G1 X102.333 Y47.195 E6.38051
G1 X109.852 Y47.7 E6.63116
G1 X110.249 Y47.694 E6.64436
G0 F7500 X110.211 Y46.934
;TYPE:SKIN
G1 F888.9 X110.523 Y46.909 E6.65477
G1 X111.032 Y46.812 E6.67201
G1 X111.503 Y46.663 E6.68844
G1 X111.854 Y46.499 E6.70132
G1 X112.126 Y46.351 E6.71162
G1 X112.489 Y46.105 E6.72621
G1 X112.74 Y45.894 E6.73711
G1 X112.99 Y45.649 E6.74876
G1 X113.194 Y45.414 E6.75911
G1 X113.365 Y45.173 E6.76894
G1 X113.186 Y44.927 E6.77905
G1 X112.941 Y44.642 E6.79155
G1 X112.651 Y44.379 E6.80458
G1 X112.344 Y44.138 E6.81756
G1 X111.861 Y43.848 E6.83629
G1 X111.505 Y43.693 E6.84921
G1 X111.222 Y43.598 E6.85914
G1 X110.85 Y43.501 E6.87192
G1 X110.557 Y43.448 E6.88183
G1 X110.201 Y43.412 E6.89373
G1 X109.796 Y43.415 E6.9072
G1 X104.068 Y43.799 E7.09814
G1 F834.7 X103.822 Y43.842 E7.10699
G1 F742.3 X103.575 Y43.885 E7.11697
G1 F681.2 X103.486 Y43.907 E7.12095
G1 X103.568 Y43.935 E7.12471
G1 F722.7 X103.828 Y44.056 E7.13644
G1 F763 X104.088 Y44.177 E7.14756
G1 F834.7 X104.384 Y44.567 E7.1649
G1 F888.9 X104.449 Y44.903 E7.17628
G1 X104.449 Y45.446 E7.19434
G1 X104.384 Y45.787 E7.20589
G1 F850.6 X104.094 Y46.164 E7.22242
G1 F797.2 X103.852 Y46.305 E7.23281
G1 F764.7 X103.609 Y46.446 E7.24367
G1 F813.7 X104.086 Y46.55 E7.26141
G1 F888.9 X109.873 Y46.939 E7.45432
G1 X110.211 Y46.934 E7.46556
G0 F7500 X110.328 Y47.187
G0 X102.563 Y46.638
G0 X102.562 Y46.187
G0 X103.392 Y46.113
G0 X103.598 Y46.444
G1 F659.7 X103.331 Y46.436 E7.47754
G1 F685.1 X103.064 Y46.428 E7.48906
G1 F714 X102.797 Y46.42 E7.50012
G0 F7500 X102.776 Y46.723
G0 X102.562 Y46.187
G0 X103.92 Y45.841
G0 X103.92 Y44.508
G0 X102.559 Y44.163
G0 X102.559 Y43.798
G0 X102.794 Y43.93
G1 F706.9 X103.14 Y43.919 E7.5146
G1 F676 X103.486 Y43.907 E7.52974
G0 F7500 X103.485 Y44.235
G0 X104.084 Y44.601
G0 X104.45 Y44.324
G1 F888.9 X104.827 Y43.948 E7.54745
G0 F7500 X105.433 Y43.907
G1 F888.9 X104.617 Y44.723 E7.58584
G0 F7500 X104.651 Y45.254
G1 F888.9 X106.039 Y43.866 E7.65112
G0 F7500 X106.645 Y43.826
G1 F888.9 X104.472 Y46 E7.75336
G0 F7500 X104.651 Y46.386
G1 F888.9 X107.252 Y43.785 E7.8757
G0 F7500 X107.858 Y43.745
G1 F888.9 X105.18 Y46.422 E8.00164
G0 F7500 X105.711 Y46.458
G1 F888.9 X108.465 Y43.704 E8.13118
G0 F7500 X109.071 Y43.663
G1 F888.9 X106.24 Y46.494 E8.26434
G0 F7500 X106.771 Y46.529
G1 F888.9 X109.677 Y43.622 E8.40106
G0 F7500 X110.249 Y43.617
G1 F888.9 X107.301 Y46.565 E8.53972
G0 F7500 X107.83 Y46.601
G1 F888.9 X110.746 Y43.685 E8.67688
G0 F7500 X111.197 Y43.8
G1 F888.9 X108.361 Y46.636 E8.81028
G0 F7500 X108.89 Y46.672
G1 F888.9 X111.607 Y43.955 E8.93808
G0 F7500 X111.977 Y44.151
G1 F888.9 X109.421 Y46.707 E9.0583
G0 F7500 X109.957 Y46.737
G1 F888.9 X112.321 Y44.373 E9.1695
G0 F7500 X112.63 Y44.63
G1 F888.9 X110.563 Y46.697 E9.26672
G0 F7500 X111.313 Y46.512
G1 F888.9 X112.91 Y44.916 E9.34182
;MESH:NONMESH
G0 F300 X112.91 Y44.916 Z0.6
G0 F7500 X113.261 Y44.615
G0 X113.601 Y45.176
G0 X113.01 Y45.91
G0 X112.165 Y46.558
G0 X111.334 Y46.903
G0 X110.328 Y47.187
G0 X110.061 Y47.443
;TIME_ELAPSED:27.386072
;LAYER:2
M106 S170
M106 P1 S170
;TYPE:WALL-INNER
;MESH:3DBenchy.stl
G1 F952.4 X110.464 Y47.42 E9.35524
G1 X110.895 Y47.357 E9.36973
G1 X111.281 Y47.268 E9.38291
G1 X111.686 Y47.134 E9.3971
G1 X111.947 Y47.024 E9.40652
G1 X112.297 Y46.856 E9.41943
G1 X112.834 Y46.51 E9.44068
G1 X113.149 Y46.25 E9.45426
G1 X113.457 Y45.957 E9.4684
G1 X113.793 Y45.557 E9.48577
G1 X114.051 Y45.173 E9.50116
G1 X113.78 Y44.782 E9.51698
G1 X113.547 Y44.498 E9.5292
G1 X113.352 Y44.29 E9.53869
G1 X113.111 Y44.067 E9.54961
G1 X112.897 Y43.892 E9.5588
G1 X112.56 Y43.655 E9.5725
G1 X112.15 Y43.418 E9.58825
G1 X111.678 Y43.211 E9.6054
G1 X111.31 Y43.091 E9.61827
G1 X110.944 Y43.002 E9.6308
G1 X110.421 Y42.92 E9.64841
G1 X109.896 Y42.903 E9.66588
G1 X102.294 Y43.45 E9.91937
G1 X102.293 Y44.262 E9.94638
G1 X103.492 Y44.262 E9.98626
G1 X103.859 Y44.386 E9.99915
G1 X104.049 Y44.636 E10.00959
G1 X104.092 Y44.862 E10.01724
G1 X104.092 Y45.487 E10.03803
G1 X104.049 Y45.713 E10.04568
G1 X103.859 Y45.963 E10.05612
G1 X103.553 Y46.085 E10.06708
G1 X102.294 Y46.088 E10.10895
G1 X102.299 Y46.901 E10.136
G1 X109.678 Y47.432 E10.38206
G1 X110.061 Y47.443 E10.3948
G0 F9000 X110.067 Y47.843
;TYPE:WALL-OUTER
G1 F952.4 X110.504 Y47.818 E10.40936
G1 X110.969 Y47.751 E10.42499
G1 X111.389 Y47.654 E10.43932
G1 X111.826 Y47.509 E10.45464
G1 X112.111 Y47.389 E10.46492
G1 X112.493 Y47.206 E10.47901
G1 X113.071 Y46.834 E10.50187
G1 X113.415 Y46.549 E10.51673
G1 X113.749 Y46.231 E10.53207
G1 X114.113 Y45.799 E10.55086
G1 X114.331 Y45.474 E10.56387
G1 X114.459 Y45.251 E10.57242
G1 X114.459 Y45.095 E10.57761
G1 X114.33 Y44.873 E10.58615
G1 X114.1 Y44.541 E10.59959
G1 X113.848 Y44.234 E10.6128
G1 X113.634 Y44.006 E10.6232
G1 X113.374 Y43.765 E10.63499
G1 X113.139 Y43.573 E10.64508
G1 X112.776 Y43.317 E10.65986
G1 X112.331 Y43.06 E10.67695
G1 X111.82 Y42.837 E10.69549
G1 X111.42 Y42.706 E10.70949
G1 X111.022 Y42.609 E10.72312
G1 X110.458 Y42.521 E10.7421
G1 X109.888 Y42.503 E10.76107
G1 X102.171 Y43.059 E11.0184
G1 X102.035 Y43.116 E11.02331
G1 X101.962 Y43.193 E11.02684
G1 X101.894 Y43.405 E11.03424
G1 X101.893 Y44.662 E11.07605
G1 X103.492 Y44.662 E11.12923
G1 X103.615 Y44.703 E11.13354
G1 X103.692 Y44.804 E11.13777
G1 X103.692 Y45.545 E11.16241
G1 X103.615 Y45.646 E11.16664
G1 X103.513 Y45.687 E11.17029
G1 X101.893 Y45.687 E11.22418
G1 X101.894 Y46.943 E11.26595
G1 X101.95 Y47.137 E11.27267
G1 X102.032 Y47.23 E11.27679
G1 X102.207 Y47.296 E11.28301
G1 X109.658 Y47.832 E11.53147
G1 X110.067 Y47.843 E11.54508
G0 F9000 X110.055 Y47.082
;TYPE:SKIN
G1 F952.4 X110.427 Y47.061 E11.55747
G1 X110.825 Y47.003 E11.57085
G1 X111.17 Y46.923 E11.58263
G1 X111.557 Y46.797 E11.59617
G1 X111.798 Y46.695 E11.60487
G1 X112.122 Y46.54 E11.61682
G1 X112.618 Y46.22 E11.63645
G1 X112.907 Y45.98 E11.64894
G1 X113.229 Y45.67 E11.66381
G1 X113.637 Y45.179 E11.68504
G1 X113.297 Y44.76 E11.70299
G1 X113.097 Y44.545 E11.71276
G1 X112.764 Y44.24 E11.72778
G1 X112.367 Y43.959 E11.74395
G1 X111.986 Y43.74 E11.75857
G1 X111.55 Y43.548 E11.77441
G1 X111.198 Y43.436 E11.7867
G1 X110.873 Y43.356 E11.79783
G1 X110.385 Y43.28 E11.81426
G1 X109.905 Y43.265 E11.83023
G1 X104.072 Y43.684 E12.02474
G1 F879.8 X103.826 Y43.735 E12.03378
G1 F763.5 X103.58 Y43.786 E12.04421
G1 F687.7 X103.485 Y43.814 E12.04877
G1 X103.572 Y43.85 E12.05311
G1 F738.3 X103.831 Y43.978 E12.0655
G1 F790.4 X104.091 Y44.107 E12.07714
G1 F879.8 X104.384 Y44.492 E12.09455
G1 F952.4 X104.449 Y44.829 E12.10597
G1 X104.449 Y45.52 E12.12895
G1 X104.384 Y45.857 E12.14037
G1 F860 X104.094 Y46.239 E12.15803
G1 F782.3 X103.569 Y46.545 E12.18264
G1 F817.5 X103.829 Y46.606 E12.19299
G1 F902.8 X104.09 Y46.667 E12.2024
G1 F952.4 X109.698 Y47.072 E12.3894
G1 X110.055 Y47.082 E12.40128
G0 F9000 X110.046 Y47.342
G0 X102.465 Y46.741
G0 X102.466 Y46.26
G0 X103.404 Y46.187
G0 X103.567 Y46.537
G1 F662.6 X103.283 Y46.528 E12.41487
G1 F688.9 X102.999 Y46.518 E12.42793
G1 F717.5 X102.715 Y46.508 E12.44048
G0 F9000 X102.714 Y46.188
G0 X103.92 Y45.915
G0 X103.92 Y44.434
G0 X102.465 Y44.09
G0 X102.465 Y43.61
G0 X102.714 Y43.842
G1 F720.2 X102.971 Y43.833 E12.45179
G1 F695.2 X103.228 Y43.824 E12.46351
G1 F673.1 X103.485 Y43.814 E12.47562
G0 F9000 X103.468 Y43.468
G0 X102.465 Y43.61
G0 X102.465 Y44.09
G0 X103.92 Y44.434
G0 X103.957 Y46.09
G0 X102.466 Y46.26
G0 X102.465 Y46.741
G0 X104.713 Y46.974
G0 X104.412 Y46.147
G1 F952.4 X104.779 Y46.514 E12.49288
G0 F9000 X105.389 Y46.558
G1 F952.4 X104.603 Y45.772 E12.52985
G0 F9000 X104.651 Y45.254
G1 F952.4 X105.999 Y46.602 E12.59325
G0 F9000 X106.609 Y46.647
G1 F952.4 X104.618 Y44.655 E12.68693
G0 F9000 X104.39 Y43.861
G1 F952.4 X107.219 Y46.69 E12.82
G0 F9000 X107.829 Y46.735
G1 F952.4 X104.918 Y43.824 E12.95692
G0 F9000 X105.445 Y43.786
G1 F952.4 X108.439 Y46.779 E13.09773
G0 F9000 X109.049 Y46.823
G1 F952.4 X105.973 Y43.747 E13.24241
G0 F9000 X106.501 Y43.71
G1 F952.4 X109.659 Y46.868 E13.39095
G0 F9000 X110.228 Y46.871
G1 F952.4 X107.029 Y43.672 E13.54143
G0 F9000 X107.556 Y43.634
G1 F952.4 X110.735 Y46.812 E13.69093
G0 F9000 X111.192 Y46.704
G1 F952.4 X108.084 Y43.595 E13.83715
G0 F9000 X108.612 Y43.558
G1 F952.4 X111.613 Y46.56 E13.97833
G0 F9000 X111.996 Y46.377
G1 F952.4 X109.139 Y43.52 E14.11271
G0 F9000 X109.667 Y43.482
G1 F952.4 X112.343 Y46.157 E14.23856
G0 F9000 X112.668 Y45.917
G1 F952.4 X110.226 Y43.475 E14.35342
G0 F9000 X110.88 Y43.564
G1 F952.4 X112.963 Y45.646 E14.45138
G0 F9000 X113.232 Y45.35
G1 F952.4 X111.727 Y43.844 E14.52219
;MESH:NONMESH
G0 F300 X111.727 Y43.844 Z0.8
G0 F9000 X111.913 Y43.424
G0 X113.06 Y44.239
G0 X113.675 Y44.914
G0 X113.848 Y45.176
G0 X113.221 Y45.959
G0 X112.476 Y46.549
G0 X111.537 Y47.015
G0 X110.655 Y47.213
G0 X109.653 Y47.329
G0 X109.638 Y47.574
;TIME_ELAPSED:40.359426
;LAYER:3
M106 S255
M106 P1 S255
;TYPE:WALL-INNER
